web/packages/design/src/ResourceIcon/assets/opsgenie.svg

<svg width="72" height="72" viewBox="0 0 72 72" fill="none" xmlns="http://www.w3.org/2000/svg">
<path d="M35.9508 35.8541C45.9212 35.8541 54.0043 27.8279 54.0043 17.9271C54.0043 8.02626 45.9212 0 35.9508 0C25.9802 0 17.8975 8.02626 17.8975 17.9271C17.8975 27.8279 25.9802 35.8541 35.9508 35.8541Z" fill="url(#paint0_linear_6733_29871)"/>
<path d="M34.4321 71.6076C22.667 64.0541 12.8289 53.8819 5.83074 41.7962C5.32363 40.7889 5.6279 39.5804 6.64213 39.0768H6.74355L20.4357 32.4298C21.3485 31.9262 22.5656 32.3292 23.0727 33.2354C29.9694 44.7168 40.2132 53.9825 52.4852 59.6226C47.9215 64.1548 42.9516 68.1833 37.5762 71.6076C36.5619 72.1112 35.3449 72.1112 34.4321 71.6076Z" fill="url(#paint1_linear_6733_29871)"/>
<path d="M37.4714 71.6085C49.338 64.1557 59.0747 53.8828 66.174 41.8981C66.6811 40.8908 66.3771 39.6823 65.3628 39.1787H65.2615L51.5692 32.5314C50.6563 32.0278 49.4393 32.4307 48.9322 33.3373C42.0355 44.8188 31.7917 54.0844 19.5195 59.7245C23.9821 64.2563 29.0533 68.2853 34.4287 71.7092C35.3416 72.1121 36.5586 72.1121 37.4714 71.6085Z" fill="#2684FF"/>
<defs>
<linearGradient id="paint0_linear_6733_29871" x1="35.974" y1="5.97255" x2="35.974" y2="42.8641" gradientUnits="userSpaceOnUse">
<stop stop-color="#2684FF"/>
<stop offset="0.82" stop-color="#0052CC"/>
</linearGradient>
<linearGradient id="paint1_linear_6733_29871" x1="24.8289" y1="41.8316" x2="37.1321" y2="67.7622" gradientUnits="userSpaceOnUse">
<stop stop-color="#2684FF"/>
<stop offset="0.62" stop-color="#0052CC"/>
</linearGradient>
</defs>
</svg>

<svg xmlns="http://www.w3.org/2000/svg" width="72" height="72" fill="none" viewBox="0 0 72 72"><path fill="url(#paint0_linear_6733_29871)" d="M35.95 35.854c9.971 0 18.054-8.026 18.054-17.927S45.921 0 35.951 0 17.898 8.026 17.898 17.927 25.98 35.854 35.95 35.854"/><path fill="url(#paint1_linear_6733_29871)" d="M34.432 71.608C22.667 64.054 12.83 53.882 5.831 41.796c-.507-1.007-.203-2.216.811-2.72h.102l13.692-6.646c.913-.504 2.13-.1 2.637.805 6.896 11.482 17.14 20.748 29.412 26.388-4.563 4.532-9.533 8.56-14.909 11.985-1.014.503-2.231.503-3.144 0"/><path fill="#2684ff" d="M37.471 71.609c11.867-7.453 21.604-17.726 28.703-29.71.507-1.008.203-2.217-.811-2.72h-.102L51.57 32.53c-.913-.503-2.13-.1-2.637.806-6.897 11.482-17.14 20.747-29.412 26.387 4.462 4.532 9.533 8.561 14.909 11.985.913.403 2.13.403 3.042-.1"/><defs><linearGradient id="paint0_linear_6733_29871" x1="35.974" x2="35.974" y1="5.973" y2="42.864" gradientUnits="userSpaceOnUse"><stop stop-color="#2684ff"/><stop offset=".82" stop-color="#0052cc"/></linearGradient><linearGradient id="paint1_linear_6733_29871" x1="24.829" x2="37.132" y1="41.832" y2="67.762" gradientUnits="userSpaceOnUse"><stop stop-color="#2684ff"/><stop offset=".62" stop-color="#0052cc"/></linearGradient></defs></svg>
